X:1
T:Title
%%score { ( 1 3 ) | ( 2 4 ) }
L:1/8
Q:1/4=100
M:4/4
K:Eb
V:1 treble nm="Grand Piano"
V:3 treble 
V:2 bass 
V:4 bass 
V:1
 E2 B,2 G2 E2 | [B,GB]>[B,FA] [B,EG][B,FA] [B,GB]2 E>E | A>G [FA][EB] [Ec]2 [Ec]2 | %3
w: Mrs.~Joseph~F.~Knapp * * *|||
 B>G EG [B,DF]4 | E2 B,2 G2 E2 | [B,GB]>[B,FA] [B,EG][B,FA] [B,GB]2 E>E | z4 z2 e2 | %7
w: ||||
 [EG]3 [A,DF] [G,E]2 [EB]2 | z4 z2 .d2 | B3 [B,FA] [B,EG]2 [B,GB]2 | B4 [AB]4 | [EGB]4 z2 [EB]2 | %12
w: |||||
 z4 z2 .d2 | B3 A G2 B2 | B4 B4 | E4 z4 |] %16
w: ||||
V:2
 E,2 B,,2 G,2 E,2 | E,>E, E,E, E,2 [E,G,]>[E,G,] | [E,CE]>[E,B,E] [E,C][E,G,] [A,,A,]2 [A,,A,]2 | %3
 [E,G,E]>[E,B,E] [E,G,][E,B,E] B,,4 | E,2 B,,2 G,2 E,2 | E,>E, E,E, E,2 [E,G,]>[E,G,] | z4 z2 E2 | %7
 B,3 B,, E,2 [E,G,]2 | z4 z2 .B,2 | [E,G,E]3 E, E,2 E,2 | z2 E2 z2 D2 | E,4 z2 [E,G,]2 | %12
 [A,,A,]2 A,,2 A,,2 B,A, | [E,G,E]3 [E,B,F] [E,B,E]2 [E,G,E]2 | F,2 z2 [B,,A,]4 | [E,G,]4 z4 |] %16
V:3
 x8 | x8 | x8 | x8 | x8 | x8 | A>G AB c2 z C | x8 | [Ec]2 [CEA]2 [CEe]2 E-[Ec] | x8 | %10
 [DF]2 G2 F2 z2 | x8 | [Ec]2 [CEA]2 [CEe]2 E-[Ec] | x8 | D2 [G,E]2 F2 D2 | x8 |] %16
V:4
 x8 | x8 | x8 | x8 | x8 | x8 | [E,CE]>[E,B,E] [E,CE][E,G,E] [A,E]2 [G,B,]A, | x8 | %8
 [A,,A,]2 A,,2 A,,2 A,,-[A,,A,] | x8 | B,,4 B,,4 | x8 | z4 z2 A,,2 | x8 | B,,4 z4 | x8 |] %16

